!!!COM:	Bach, Johann Sebastian
!!!OMV:	Oh God, how many heart pains
!!!OTL:	Oh God, how many heart pains
**kern	**fb	**kern	**kern	**kern	**kern
*part5	*part5	*part4	*part3	*part2	*part1
*staff5	*	*staff4	*staff3	*staff2	*staff1
*I"Continuo	*	*I"Voice	*I"Voice	*I"Voice	*I"Voice
*I'Cont.	*	*I'V	*I'V	*I'V	*I'V
*clefF4	*	*clefF4	*clefGv2	*clefG2	*clefG2
*Trd0c0	*	*	*	*	*
*k[f#c#g#]	*	*k[f#c#g#]	*k[f#c#g#]	*k[f#c#g#]	*k[f#c#g#]
*M4/4	*	*M4/4	*M4/4	*M4/4	*M4/4
4A	.	4A	8AL	8c#L	4a
.	.	.	8BJ	8dJ	.
=2	=2	=2	=2	=2	=2
8AAL	.	8AAL	8c#L	4e	4a
8BBJ	.	8BBJ	8dJ	.	.
4C#	6	4C#	4e	4A	4a
8DL	.	8DL	4A	4d	8f#L
8EJ	.	8EJ	.	.	8g#J
8F#L	5	8F#L	8AL	4c#	4a
8EJ	.	8EJ	8G#J	.	.
=3	=3	=3	=3	=3	=3
4D#X	6	4D#X	4F#	4B	8bL
.	5	.	.	.	8aJ
4E	.	4E	8G#L	4e	4g#
.	.	.	8AJ	.	.
4BB;	#	4BB;	4B;	4d#X;	4f#;
8BL	#	8BL	4B	4d#	4f#
8AJ	.	8AJ	.	.	.
=4	=4	=4	=4	=4	=4
8G#L	6	8G#L	4B	4e	4g#
8AJ	.	8AJ	.	.	.
8G#L	7 #5\ 2	8G#L	4d#X	4f#	4a
8F#J	.	8F#J	.	.	.
8EL	.	8EL	8G#L	8f#L	4b
8F#J	.	8F#J	8AJ	8d#XJ	.
8G#L	6	8G#L	8BL	4e	8eL
8AJ	6 5	8AJ	8c#J	.	8f#J
=5	=5	=5	=5	=5	=5
4B	6 4	4B	4B	8eL	8g#L
.	.	.	.	8f#J	8aJ
4BB	5 #	4BB	8BL	4d#X	4f#
.	.	.	8AJ	.	.
4E;	.	4E;	4G#;	4B;	4e;
4E	.	4E	4e	4g#	4b
=6	=6	=6	=6	=6	=6
!!linebreak:original
8AL	.	8AL	8eL	4a	4cc#
8G#J	.	8G#J	8f#J	.	.
8F#L	5 2	8F#L	4g#	4c#	4cc#
8E#XJ	.	8E#XJ	.	.	.
8F#L	.	8F#L	8c#L	8f#L	8aL
8EnJ	.	8EnJ	8dnJ	8g#J	8bJ
8DL	7 #5\	8DL	4e	4a#X	4cc#
8C#J	.	8C#J	.	.	.
=7	=7	=7	=7	=7	=7
4BB	5	4BB	8f#L	4b	4dd
.	6	.	8g#J	.	.
8C#L	.	8C#L	4a	8eL	4cc#
8DJ	.	8DJ	.	8f#J	.
4E;	.	4E;	4e;	4g#;	4b;
4F#	.	4F#	4c#	4f#	4an
=8	=8	=8	=8	=8	=8
4G#	6	4G#	4B	8eL	4b
.	5	.	.	8dJ	.
4A	5	4A	8EL	8c#L	4cc#
.	6	.	8F#J	8d#XJ	.
4E	8	4E	4G#	8eL	4b
.	7	.	.	8dnJ	.
8F#L	.	8F#L	4A	4c#	4a
8EJ	.	8EJ	.	.	.
=9	=9	=9	=9	=9	=9
4D#X	6 5	4D#X	8BL	4f#	4a
.	.	.	8c#J	.	.
4E	7	4E	4d	4e	4g#
4AA;	.	4AA;	4c#;	4e;	4a;
=||	=||	=||	=||	=||	=||
*-	*-	*-	*-	*-	*-
!!!system-decoration: s1,s2,s3,s4,s5
